assets/images/icons/src/linkedin-square.svg

<?xml version="1.0" encoding="utf-8"?>
<!-- Generated by IcoMoon.io -->
<!DOCTYPE svg PUBLIC "-//W3C//DTD SVG 1.1//EN" "http://www.w3.org/Graphics/SVG/1.1/DTD/svg11.dtd">
<svg version="1.1" xmlns="http://www.w3.org/2000/svg" xmlns:xlink="http://www.w3.org/1999/xlink" width="12" height="14" viewBox="0 0 12 14">
<path fill="#444444" d="M1.852 11.047h1.805v-5.422h-1.805v5.422zM3.773 3.953q-0.008-0.406-0.281-0.672t-0.727-0.266-0.738 0.266-0.285 0.672q0 0.398 0.277 0.668t0.723 0.27h0.008q0.461 0 0.742-0.27t0.281-0.668zM8.344 11.047h1.805v-3.109q0-1.203-0.57-1.82t-1.508-0.617q-1.062 0-1.633 0.914h0.016v-0.789h-1.805q0.023 0.516 0 5.422h1.805v-3.031q0-0.297 0.055-0.438 0.117-0.273 0.352-0.465t0.578-0.191q0.906 0 0.906 1.227v2.898zM12 3.25v7.5q0 0.93-0.66 1.59t-1.59 0.66h-7.5q-0.93 0-1.59-0.66t-0.66-1.59v-7.5q0-0.93 0.66-1.59t1.59-0.66h7.5q0.93 0 1.59 0.66t0.66 1.59z"></path>
</svg>

<svg xmlns="http://www.w3.org/2000/svg" width="12" height="14" viewBox="0 0 12 14"><path fill="#444" d="M1.852 11.047h1.805V5.625H1.852v5.422zm1.921-7.094q-.008-.406-.281-.672t-.727-.266-.738.266-.285.672q0 .398.277.668t.723.27h.008q.461 0 .742-.27t.281-.668zm4.571 7.094h1.805V7.938q0-1.203-.57-1.82t-1.508-.617q-1.062 0-1.633.914h.016v-.789H4.649q.023.516 0 5.422h1.805V8.017q0-.297.055-.438.117-.273.352-.465t.578-.191q.906 0 .906 1.227v2.898zM12 3.25v7.5q0 .93-.66 1.59T9.75 13h-7.5q-.93 0-1.59-.66T0 10.75v-7.5q0-.93.66-1.59T2.25 1h7.5q.93 0 1.59.66T12 3.25z"/></svg>
